COLOR/action 16/16/path-tweak-shrink.svg

<svg height="16" width="16" xmlns="http://www.w3.org/2000/svg"><g stroke-width=".666033"><path d="m15.5 11c-3.68959 0-4.858437-2.621055-7.4580618-2.6247879-2.5996144-.0033935-3.9390964 2.6247879-7.5419382 2.6247879v-2.8891445-3.1108555c3.2434848.0453602 4.3843381 2.462803 7.5479843 2.4956073 3.1636467.032691 3.3518897-2.3815845 7.4520157-2.4956073" fill="#1a7fd4"/><path d="m.5 5v.5c3.2434848.0453602 4.3851819 2.4632895 7.5488281 2.4960938 3.1636469.0326909 3.3510459-2.382071 7.4511719-2.4960938v-.5c-4.100126.1140228-4.287525 2.5287848-7.4511719 2.4960938-3.1636462-.0328043-4.3053433-2.4507336-7.5488281-2.4960938z" fill="#fff" opacity=".3"/><path d="m8.0410156 7.875c-2.5996144-.0033935-3.9381738 2.625-7.5410156 2.625v.5c3.6028418 0 4.9414012-2.6283935 7.5410156-2.625 2.5996244.0037329 3.7693944 2.625 7.4589844 2.625v-.5c-3.68959 0-4.85936-2.6212671-7.4589844-2.625z" opacity=".2"/></g></svg>

<?xml version="1.0" encoding="UTF-8" standalone="no"?>
<svg
   xmlns:dc="http://purl.org/dc/elements/1.1/"
   xmlns:cc="http://creativecommons.org/ns#"
   xmlns:rdf="http://www.w3.org/1999/02/22-rdf-syntax-ns#"
   xmlns:svg="http://www.w3.org/2000/svg"
   xmlns="http://www.w3.org/2000/svg"
   xmlns:sodipodi="http://sodipodi.sourceforge.net/DTD/sodipodi-0.dtd"
   xmlns:inkscape="http://www.inkscape.org/namespaces/inkscape"
   height="16"
   width="16"
   version="1.1"
   id="svg4"
   sodipodi:docname="path-tweak-shrink.svg"
   inkscape:version="0.92.4 (5da689c313, 2019-01-14)">
  <metadata
     id="metadata10">
    <rdf:RDF>
      <cc:Work
         rdf:about="">
        <dc:format>image/svg+xml</dc:format>
        <dc:type
           rdf:resource="http://purl.org/dc/dcmitype/StillImage" />
      </cc:Work>
    </rdf:RDF>
  </metadata>
  <defs
     id="defs8" />
  <sodipodi:namedview
     pagecolor="#ffffff"
     bordercolor="#666666"
     borderopacity="1"
     objecttolerance="10"
     gridtolerance="10"
     guidetolerance="10"
     inkscape:pageopacity="0"
     inkscape:pageshadow="2"
     inkscape:window-width="1491"
     inkscape:window-height="834"
     id="namedview6"
     showgrid="false"
     inkscape:zoom="62.2"
     inkscape:cx="8"
     inkscape:cy="8"
     inkscape:window-x="0"
     inkscape:window-y="27"
     inkscape:window-maximized="0"
     inkscape:current-layer="svg4" />
  <path
     d="M 15.5,11 C 11.81041,11 10.641563,8.378945 8.0419382,8.3752121 5.4423238,8.3718186 4.1028418,11 0.5,11 V 8.1108555 5 C 3.7434848,5.0453602 4.8843381,7.462803 8.0479843,7.4956073 11.211631,7.5282983 11.399874,5.1140228 15.5,5"
     id="path2"
     inkscape:connector-curvature="0"
     style="fill:#1a7fd4;stroke-width:0.66603285" />
  <path
     style="fill:#ffffff;stroke-width:0.66603285;fill-opacity:1;opacity:0.3"
     d="M 0.5 5 L 0.5 5.5 C 3.7434848 5.5453602 4.8851819 7.9632895 8.0488281 7.9960938 C 11.212475 8.0287847 11.399874 5.6140228 15.5 5.5 L 15.5 5 C 11.399874 5.1140228 11.212475 7.5287848 8.0488281 7.4960938 C 4.8851819 7.4632895 3.7434848 5.0453602 0.5 5 z "
     id="path817" />
  <path
     style="fill:#000000;stroke-width:0.66603285;fill-opacity:1;opacity:0.2"
     d="M 8.0410156 7.875 C 5.4414012 7.8716065 4.1028418 10.5 0.5 10.5 L 0.5 11 C 4.1028418 11 5.4414012 8.3716065 8.0410156 8.375 C 10.64064 8.3787329 11.81041 11 15.5 11 L 15.5 10.5 C 11.81041 10.5 10.64064 7.8787329 8.0410156 7.875 z "
     id="path824" />
</svg>
